brandFactory_export/3.Masa/Comprar planes_3Masa.svg

<?xml version="1.0" encoding="UTF-8"?>
<svg width="24px" height="24px" viewBox="0 0 24 24" version="1.1" xmlns="http://www.w3.org/2000/svg" xmlns:xlink="http://www.w3.org/1999/xlink">
    <title>3.Masa/Comprar planes_3Masa</title>
    <g id="Symbols" stroke="none" stroke-width="1" fill="none" fill-rule="evenodd">
        <g id="3.Masa/Comprar-planes_3Masa" fill="#5CB615" fill-rule="nonzero">
            <path d="M11.5966387,20.1647059 C11.9630252,20.5176471 12.1478992,21.0117647 12.1478992,21.6403361 C12.1478992,22.2689076 11.9630252,22.7630252 11.5966387,23.1159664 C11.2470588,23.4521008 10.7630252,23.6235294 10.1647059,23.6235294 C9.56638655,23.6235294 9.08235294,23.4521008 8.73277311,23.1159664 C8.36638655,22.7630252 8.18151261,22.2689076 8.18151261,21.6403361 C8.18151261,21.0117647 8.36638655,20.5176471 8.73277311,20.1647059 C9.08235294,19.8285714 9.56638655,19.6571429 10.1647059,19.6571429 C10.7630252,19.6571429 11.2470588,19.8285714 11.5966387,20.1647059 Z M16.7193277,19.6571429 C16.1176471,19.6571429 15.6369748,19.8285714 15.287395,20.1647059 C14.9210084,20.5176471 14.7361345,21.0117647 14.7361345,21.6403361 C14.7361345,22.2689076 14.9210084,22.7630252 15.287395,23.1159664 C15.6369748,23.4521008 16.1210084,23.6235294 16.7193277,23.6235294 C17.3176471,23.6235294 17.8016807,23.4521008 18.1512605,23.1159664 C18.5142857,22.7630252 18.702521,22.2689076 18.702521,21.6403361 C18.702521,21.0117647 18.5176471,20.5176471 18.1512605,20.1647059 C17.8016807,19.8285714 17.3210084,19.6571429 16.7193277,19.6571429 Z M15.0887815,0.154285714 L15.1187815,0.174285714 L15.0887815,0.154285714 Z M14.8131933,0.0533613445 L14.8531933,0.0533613445 L14.8131933,0.0533613445 Z M14.9140336,0.070210084 L14.9540336,0.080210084 L14.9140336,0.070210084 Z M15.0518067,0.127394958 L15.0818067,0.147394958 L15.0518067,0.127394958 Z M14.9944118,0.0936554622 L14.9644118,0.0836554622 L14.9944118,0.0936554622 Z M15.0512605,0.130420168 L14.9512605,0.0704201681 C14.9762605,0.0904201681 15.0095938,0.110420168 15.0512605,0.130420168 Z M15.0008824,0.0969327731 L14.9108824,0.0669327731 L15.0008824,0.0969327731 Z M14.8537815,0.053487395 L14.9537815,0.083487395 C14.9204482,0.063487395 14.8871148,0.053487395 14.8537815,0.053487395 Z M14.9915966,0.0872689076 C15.0279603,0.107268908 15.055233,0.127268908 15.0915966,0.157268908 C15.055233,0.137268908 15.0279603,0.107268908 14.9915966,0.0872689076 Z M14.8596639,0.0566806723 C14.8296639,0.0566806723 14.7896639,0.0566806723 14.7596639,0.0466806723 C14.7996639,0.0566806723 14.8296639,0.0566806723 14.8596639,0.0566806723 Z M14.9067227,0.0667226891 C14.8759535,0.0567226891 14.8374919,0.0567226891 14.8067227,0.0467226891 C14.8374919,0.0567226891 14.8759535,0.0667226891 14.9067227,0.0667226891 Z M15.1252941,0.180840336 C15.0952941,0.160840336 15.0752941,0.140840336 15.0452941,0.120840336 C15.0752941,0.140840336 15.0952941,0.160840336 15.1252941,0.180840336 Z M18.7761345,3.83836134 L18.7961345,3.86836134 L18.7761345,3.83836134 Z M18.8230252,3.90533613 L18.8030252,3.87533613 L18.8230252,3.90533613 Z M18.8567647,3.96273109 L18.8667647,3.99273109 L18.8567647,3.96273109 Z M18.8835714,4.0397479 L18.8735714,3.9997479 L18.8835714,4.0397479 Z M18.8970588,4.14058824 L18.8970588,4.10058824 L18.8970588,4.14058824 Z M16.9176471,6.22857143 C16.9176471,6.50756303 16.692437,6.73277311 16.4134454,6.73277311 L11.1697479,6.73277311 C10.8907563,6.73277311 10.6655462,6.50756303 10.6655462,6.22857143 C10.6655462,5.94957983 10.8907563,5.72436975 11.1697479,5.72436975 L16.4134454,5.72436975 C16.692437,5.72436975 16.9176471,5.94957983 16.9176471,6.22857143 C16.9210084,6.22521008 16.9210084,6.22857143 16.9176471,6.22857143 Z M16.9176471,8.5210084 C16.9176471,8.8 16.692437,9.02521008 16.4134454,9.02521008 L11.1697479,9.02521008 C10.8907563,9.02521008 10.6655462,8.8 10.6655462,8.5210084 C10.6655462,8.24201681 10.8907563,8.01680672 11.1697479,8.01680672 L16.4134454,8.01680672 C16.692437,8.01680672 16.9176471,8.24201681 16.9176471,8.5210084 C16.9210084,8.5210084 16.9210084,8.5210084 16.9176471,8.5210084 Z M16.9176471,10.8168067 C16.9176471,11.0957983 16.692437,11.3210084 16.4134454,11.3210084 L11.1697479,11.3210084 C10.8907563,11.3210084 10.6655462,11.0957983 10.6655462,10.8168067 C10.6655462,10.5378151 10.8907563,10.312605 11.1697479,10.312605 L16.4134454,10.312605 C16.692437,10.312605 16.9176471,10.5378151 16.9176471,10.8168067 C16.9210084,10.8134454 16.9210084,10.8168067 16.9176471,10.8168067 Z M18.9004202,4.19411765 L18.9004202,4.09411765 L18.9004202,4.19411765 Z M18.8568487,3.9562605 L18.8868487,4.0462605 C18.8768487,4.0162605 18.8668487,3.9762605 18.8568487,3.9562605 Z M18.9070588,4.13697479 C18.9070588,4.10620556 18.8970588,4.06774402 18.8870588,4.03697479 C18.8870588,4.07543633 18.8970588,4.10620556 18.9070588,4.13697479 Z M18.7260084,3.77815126 C18.7560084,3.80815126 18.7860084,3.84815126 18.8160084,3.87815126 C18.7760084,3.84815126 18.7460084,3.81815126 18.7260084,3.77815126 Z M18.8833613,3.99915966 L18.8233613,3.89915966 C18.8433613,3.932493 18.8533613,3.96582633 18.8833613,3.99915966 Z M18.8736555,3.99327731 L18.9036555,4.09327731 C18.8836555,4.06827731 18.8736555,4.03494398 18.8736555,3.99327731 Z M18.7763025,3.82848739 C18.7963025,3.85848739 18.8163025,3.87848739 18.8363025,3.90848739 C18.8063025,3.88848739 18.7863025,3.85848739 18.7763025,3.82848739 Z M18.8631933,3.95882353 C18.8431933,3.92245989 18.8231933,3.89518717 18.8031933,3.85882353 C18.8131933,3.89518717 18.8331933,3.9315508 18.8631933,3.95882353 Z M15.0756303,0.137773109 C15.1056303,0.167773109 15.1456303,0.197773109 15.1756303,0.227773109 C15.1456303,0.197773109 15.1056303,0.167773109 15.0756303,0.137773109 Z M23.589916,6.4 C23.405042,7.12941176 23.0554622,8.53445378 22.6857143,10.0235294 C22.2319328,11.8420168 21.7647059,13.7210084 21.6235294,14.2689076 C21.3042017,15.4991597 20.8436975,16.4033613 20.205042,17.0420168 C19.5327731,17.7109244 18.6890756,18.0504202 17.6941176,18.0504202 L10.1714286,18.0504202 C9.16638655,18.0504202 8.27563025,17.7109244 7.59327731,17.0722689 C6.88403361,16.4033613 6.42352941,15.4386555 6.22857143,14.205042 C6.07058824,13.1831933 4.48403361,3.97647059 4.26890756,2.75630252 C4.12436975,1.94957983 3.28403361,1.34453782 2.3092437,1.34453782 L0.68907563,1.34453782 C0.319327731,1.34453782 0.0168067227,1.04201681 0.0168067227,0.672268908 C0.0168067227,0.302521008 0.319327731,-1.77635684e-15 0.68907563,-1.77635684e-15 L2.30588235,-1.77635684e-15 C3.94621849,-1.77635684e-15 5.32773109,1.05882353 5.58991597,2.5210084 C5.6605042,2.90756303 5.86554622,4.0907563 6.11764706,5.56302521 L9.00840336,5.56302521 L9.00840336,0.957983193 C9.00840336,0.386554622 9.37815126,0.0168067227 9.95294118,0.0168067227 L14.7596639,0.0168067227 C14.7697479,0.0168067227 14.7831933,0.0168067227 14.7932773,0.0201680672 L14.8067227,0.0201680672 C14.8201681,0.0201680672 14.8369748,0.0235294118 14.8504202,0.0268907563 L14.8907563,0.0369747899 L14.9042017,0.0403361345 L14.9344538,0.0504201681 L14.9445378,0.0537815126 L14.9848739,0.0739495798 L14.9882353,0.0739495798 C15.0016807,0.0806722689 15.0117647,0.087394958 15.0252101,0.0974789916 L15.0352941,0.104201681 C15.0453782,0.11092437 15.0521008,0.117647059 15.0621849,0.124369748 L15.0722689,0.131092437 C15.0823529,0.141176471 15.0957983,0.151260504 15.1058824,0.161344538 L18.7193277,3.77815126 C18.7294118,3.78823529 18.7394958,3.80168067 18.7495798,3.81176471 L18.7563025,3.82184874 C18.7630252,3.83193277 18.7697479,3.83865546 18.7764706,3.8487395 L18.7831933,3.85882353 C18.789916,3.86890756 18.7966387,3.88235294 18.8033613,3.89579832 L18.8033613,3.89915966 L18.8235294,3.9394958 L18.8268908,3.94957983 L18.8369748,3.97983193 L18.8403361,3.99327731 L18.8504202,4.03361345 L18.8504202,4.03697479 C18.8537815,4.05042017 18.8571429,4.06722689 18.8571429,4.08067227 L18.8571429,5.55966387 L22.9243697,5.55966387 C23.2941176,5.55966387 23.5966387,5.86218487 23.5966387,6.23193277 C23.5966387,6.28907563 23.589916,6.34285714 23.5764706,6.39663866 L23.589916,6.4 L23.589916,6.4 Z M17.8588235,4.64201681 L16.0605042,4.64201681 C15.2672269,4.63865546 14.8436975,4.27563025 14.6285714,3.97310924 C14.3764706,3.61344538 14.2521008,3.12941176 14.2487395,2.4907563 L14.2487395,1.02857143 L10.0168067,1.02857143 L10.0168067,12.9277311 L17.8621849,12.9277311 C17.8588235,12.2084034 17.8588235,7.60336134 17.8588235,4.64201681 Z M17.1462185,3.63361345 L15.2571429,1.74117647 L15.2571429,2.48739496 C15.2605042,3.54285714 15.6403361,3.63361345 16.0638655,3.63361345 L17.1462185,3.63361345 L17.1462185,3.63361345 Z" id="Comprar-planes_3Masa"></path>
        </g>
    </g>
</svg>

<svg width="24" height="24" viewBox="0 0 24 24" xmlns="http://www.w3.org/2000/svg"><path d="M11.597 20.165c.366.353.55.847.55 1.475 0 .629-.184 1.123-.55 1.476-.35.336-.834.508-1.432.508-.599 0-1.083-.172-1.432-.508-.367-.353-.551-.847-.551-1.476 0-.628.184-1.122.55-1.475.35-.336.834-.508 1.433-.508.598 0 1.082.172 1.432.508zm5.122-.508c-.601 0-1.082.172-1.432.508-.366.353-.55.847-.55 1.475 0 .629.184 1.123.55 1.476.35.336.834.508 1.432.508.599 0 1.083-.172 1.432-.508.363-.353.552-.847.552-1.476 0-.628-.185-1.122-.552-1.475-.35-.336-.83-.508-1.432-.508zM15.09.154l.03.02-.03-.02zm-.276-.1h.04-.04zm.101.016l.04.01-.04-.01zm.138.057l.03.02-.03-.02zm-.058-.033l-.03-.01.03.01zm.057.036l-.1-.06c.025.02.059.04.1.06zm-.05-.033l-.09-.03.09.03zm-.147-.044l.1.03a.193.193 0 00-.1-.03zm.138.034c.036.02.063.04.1.07-.037-.02-.064-.05-.1-.07zm-.132-.03c-.03 0-.07 0-.1-.01.04.01.07.01.1.01zm.047.01c-.031-.01-.07-.01-.1-.02.03.01.069.02.1.02zm.218.114c-.03-.02-.05-.04-.08-.06.03.02.05.04.08.06zm3.651 3.657l.02.03-.02-.03zm.047.067l-.02-.03.02.03zm.034.058l.01.03-.01-.03zm.027.077l-.01-.04.01.04zm.013.1V4.1v.04zm-1.98 2.089a.504.504 0 01-.504.504H11.17a.504.504 0 110-1.009h5.243c.28 0 .505.226.505.505.003-.004.003 0 0 0zm0 2.292a.504.504 0 01-.504.504H11.17a.504.504 0 110-1.008h5.243c.28 0 .505.225.505.504.003 0 .003 0 0 0zm0 2.296a.504.504 0 01-.504.504H11.17a.504.504 0 110-1.008h5.243c.28 0 .505.225.505.504.003-.004.003 0 0 0zM18.9 4.194v-.1.1zm-.043-.238l.03.09c-.01-.03-.02-.07-.03-.09zm.05.181c0-.03-.01-.07-.02-.1 0 .038.01.07.02.1zm-.181-.359c.03.03.06.07.09.1a.284.284 0 01-.09-.1zm.157.221l-.06-.1c.02.033.03.067.06.1zm-.01-.006l.03.1a.155.155 0 01-.03-.1zm-.097-.165c.02.03.04.05.06.08a.156.156 0 01-.06-.08zm.087.13c-.02-.036-.04-.063-.06-.1.01.037.03.074.06.1zM15.076.139c.03.03.07.06.1.09-.03-.03-.07-.06-.1-.09zM23.59 6.4c-.185.73-.535 2.134-.904 3.624-.454 1.818-.921 3.697-1.062 4.245-.32 1.23-.78 2.134-1.419 2.773-.672.669-1.516 1.008-2.51 1.008H10.17c-1.005 0-1.895-.34-2.578-.978-.709-.669-1.17-1.633-1.364-2.867-.158-1.022-1.745-10.229-1.96-11.449-.145-.806-.985-1.411-1.96-1.411H.69A.674.674 0 01.017.672C.017.302.319 0 .689 0h1.617c1.64 0 3.022 1.059 3.284 2.521.07.387.276 1.57.528 3.042h2.89V.958c0-.571.37-.941.945-.941h4.807c.01 0 .023 0 .033.003h.014c.013 0 .03.004.043.007l.04.01.014.003.03.01.01.004.04.02h.004a.226.226 0 01.037.023l.01.007c.01.007.017.014.027.02l.01.007.034.03 3.613 3.617.03.034.007.01c.007.01.014.017.02.027l.007.01c.007.01.014.023.02.037v.003l.02.04.004.01.01.03.003.014.01.04v.004c.004.013.007.03.007.044V5.56h4.067a.674.674 0 01.652.837l.014.003zm-5.731-1.758H16.06c-.794-.003-1.217-.366-1.432-.669-.253-.36-.377-.844-.38-1.482V1.029h-4.232v11.899h7.845c-.003-.72-.003-5.325-.003-8.286zm-.713-1.008L15.257 1.74v.746c.004 1.056.383 1.147.807 1.147h1.082z" fill="#5CB615" fill-rule="nonzero"/></svg>
